justvector/reddit.svg

<?xml version="1.0" encoding="iso-8859-1"?>
<!-- Generator: Adobe Illustrator 15.0.0, SVG Export Plug-In . SVG Version: 6.00 Build 0)  -->
<!DOCTYPE svg PUBLIC "-//W3C//DTD SVG 1.1//EN" "http://www.w3.org/Graphics/SVG/1.1/DTD/svg11.dtd">
<svg version="1.1" id="Icons" xmlns="http://www.w3.org/2000/svg" xmlns:xlink="http://www.w3.org/1999/xlink" x="0px" y="0px"
	 width="100px" height="100px" viewBox="0 0 100 100" style="enable-background:new 0 0 100 100;" xml:space="preserve">
<path id="reddit" d="M69.348,53.348c0.232,0.594,0.338,1.207,0.338,1.816c0,1.227-0.424,2.418-1.135,3.391
	c-0.703,0.96-1.699,1.707-2.871,2.035h0.002c-0.01,0.004-0.02,0.004-0.025,0.007c-0.004,0-0.012,0.004-0.016,0.004
	c-0.549,0.188-1.111,0.276-1.67,0.276c-1.309,0-2.594-0.472-3.621-1.275c-1.02-0.801-1.791-1.951-2.033-3.316h-0.002
	c0-0.004,0-0.008-0.002-0.014c0-0.004,0-0.008-0.004-0.014h0.004c-0.076-0.352-0.115-0.703-0.115-1.051
	c0-1.182,0.402-2.316,1.066-3.254c0.662-0.932,1.596-1.672,2.688-2.053c0.004,0,0.008-0.002,0.008-0.002
	c0.006,0,0.006-0.005,0.01-0.005c0.619-0.229,1.271-0.343,1.916-0.343c1.176,0,2.334,0.356,3.311,1.008
	c0.965,0.642,1.748,1.582,2.141,2.751c0.004,0.007,0.004,0.014,0.008,0.021c0,0.008,0.004,0.012,0.008,0.018H69.348z M65.75,67.846
	c-0.461-0.299-0.994-0.48-1.559-0.48c-0.455,0-0.928,0.13-1.348,0.409l0,0c-3.977,2.374-8.654,3.674-13.297,3.674
	c-3.484,0-6.947-0.735-10.084-2.276l-0.016-0.008l-0.016-0.006c-0.473-0.193-1.012-0.605-1.6-0.996
	c-0.299-0.193-0.611-0.386-0.957-0.527c-0.342-0.146-0.721-0.248-1.127-0.248c-0.336,0-0.689,0.076-1.037,0.234
	c-0.018,0.007-0.035,0.014-0.053,0.021h0.002c-0.547,0.209-0.975,0.591-1.25,1.044c-0.287,0.467-0.428,1.01-0.428,1.551
	c0,0.488,0.115,0.977,0.354,1.42c0.227,0.42,0.576,0.787,1.033,1.033c4.484,3.025,9.764,4.395,15.064,4.39
	c4.779,0,9.586-1.106,13.867-3.12l0.023-0.014l0.021-0.012c0.564-0.333,1.314-0.633,2.021-1.07c0.35-0.223,0.691-0.48,0.984-0.815
	c0.293-0.333,0.529-0.744,0.662-1.23v-0.002c0.055-0.214,0.082-0.424,0.082-0.632c0-0.398-0.098-0.775-0.26-1.114
	C66.594,68.563,66.205,68.144,65.75,67.846z M34.268,60.572c0.008,0,0.018,0.003,0.027,0.008c0.572,0.209,1.162,0.312,1.746,0.312
	c1.457,0,2.873-0.596,3.945-1.569c1.07-0.975,1.803-2.355,1.803-3.928c0-0.041,0-0.083-0.002-0.131
	c0.004-0.071,0.006-0.148,0.006-0.227c0-1.561-0.723-2.946-1.783-3.925c-1.064-0.981-2.477-1.581-3.939-1.581
	c-0.391,0-0.789,0.046-1.178,0.137c-0.006,0-0.01,0.002-0.016,0.002c0,0-0.004,0-0.006,0c-1.936,0.405-3.635,1.842-4.262,3.818l0,0
	v0.002c0,0.004-0.002,0.008-0.002,0.008c-0.18,0.541-0.264,1.1-0.264,1.652c0,1.212,0.4,2.391,1.09,3.362
	c0.684,0.954,1.652,1.704,2.814,2.054C34.256,60.566,34.26,60.568,34.268,60.572z M94.982,46.449v0.008
	C94.996,46.654,95,46.85,95,47.045c0,2.186-0.701,4.288-1.871,6.071c-1.092,1.669-2.598,3.066-4.332,4.013
	c0.111,0.87,0.176,1.747,0.176,2.621c-0.002,4.707-1.625,9.334-4.451,13.042v0.002h-0.006c-5.225,6.95-13.248,11.049-21.35,13.116
	h-0.002l-0.006,0.005c-4.32,1.049-8.775,1.585-13.229,1.585c-6.639,0-13.273-1.197-19.463-3.68l-0.002-0.006h-0.006
	c-6.418-2.645-12.533-6.85-16.283-13.011c-2.018-3.288-3.125-7.144-3.125-11.019c0-0.877,0.059-1.754,0.176-2.623
	c-1.689-0.951-3.152-2.3-4.238-3.91c-1.16-1.73-1.895-3.756-1.988-5.898v-0.008v-0.008V47.32c0.002-3,1.305-5.842,3.33-7.937
	s4.791-3.464,7.758-3.464c0.041,0,0.082,0,0.123,0c0.311-0.021,0.625-0.033,0.939-0.033c1.49,0,2.984,0.241,4.402,0.785l0.008,0.006
	l0.008,0.002c1.211,0.51,2.414,1.125,3.486,1.977c0.348-0.182,0.727-0.387,1.152-0.549c6.5-3.849,14.055-5.334,21.418-5.762
	c0.064-3.648,0.512-7.466,2.291-10.808c1.482-2.776,4.053-4.938,7.115-5.687l0.012-0.006l0.016-0.002
	c1.166-0.226,2.342-0.33,3.51-0.33c3.111,0,6.186,0.737,9.063,1.887c1.273-1.922,3.092-3.422,5.225-4.263l0.02-0.012l0.02-0.008
	c1.252-0.39,2.574-0.618,3.902-0.618c1.4,0,2.811,0.256,4.133,0.847v-0.005c0.002,0.005,0.004,0.005,0.004,0.005
	c0.01,0.003,0.018,0.009,0.025,0.009c1.896,0.73,3.5,2.079,4.637,3.756c1.139,1.684,1.809,3.701,1.809,5.775
	c0,0.382-0.021,0.765-0.066,1.148l-0.004,0.008c0,0.006,0,0.014-0.002,0.02c-0.223,2.68-1.58,5.032-3.502,6.709
	c-1.934,1.684-4.438,2.701-7.008,2.701c-0.412,0-0.828-0.023-1.242-0.078c-2.549-0.195-4.926-1.428-6.672-3.263
	c-1.752-1.832-2.881-4.28-2.881-6.922c0-0.128,0.012-0.259,0.016-0.386c-2.393-1.065-4.934-1.949-7.459-1.947
	c-0.365,0-0.73,0.02-1.096,0.057h-0.004c-1.891,0.182-3.648,1.374-4.5,3.088v0.002v0.006c-1.293,2.518-1.551,5.461-1.59,8.383
	c7.248,0.473,14.539,2.212,20.934,5.888h0.01l0.092,0.054c0.121,0.072,0.346,0.195,0.549,0.303c0.439-0.356,0.904-0.723,1.434-1.039
	c1.939-1.291,4.236-1.933,6.533-1.933c1.02,0,2.041,0.13,3.031,0.384h0.004l0.041,0.012c0.014,0.002,0.025,0.007,0.037,0.007v0.002
	c2.34,0.595,4.457,1.939,6.051,3.751c1.592,1.815,2.664,4.111,2.873,6.604V46.449z M73.633,22.729c0,0.098,0.002,0.199,0.012,0.301
	v0.006v0.012c0.047,1.259,0.641,2.431,1.545,3.297c0.908,0.866,2.113,1.402,3.336,1.407h0.016h0.016
	c0.088,0.007,0.178,0.007,0.264,0.007c1.234,0.002,2.459-0.53,3.379-1.393c0.922-0.867,1.529-2.046,1.578-3.316l0.002-0.006v-0.008
	c0.008-0.097,0.012-0.189,0.012-0.288c0-1.307-0.611-2.553-1.568-3.476c-0.953-0.922-2.236-1.493-3.502-1.49
	c-0.408,0-0.813,0.056-1.209,0.179L77.5,17.962l-0.012,0.005c-1.043,0.271-2.02,0.914-2.723,1.768
	C74.061,20.585,73.633,21.636,73.633,22.729z M20.131,42.156c-0.969-0.451-1.971-0.773-2.961-0.769c-0.166,0-0.334,0.01-0.5,0.028
	h-0.023l-0.023,0.003c-1.422,0.039-2.857,0.659-3.934,1.653c-1.078,0.99-1.791,2.327-1.846,3.801v0.014l-0.002,0.012
	c-0.01,0.119-0.014,0.238-0.014,0.352c0,0.909,0.279,1.788,0.752,2.588c0.35,0.595,0.809,1.139,1.328,1.611
	C14.57,47.811,17.166,44.723,20.131,42.156z M83.271,59.954c0-3.243-1.17-6.501-3.064-9.124c-3.777-5.256-9.637-8.684-15.732-10.595
	l-0.043-0.015c-1.17-0.359-2.352-0.677-3.543-0.949c-3.563-0.811-7.215-1.215-10.863-1.215c-4.9,0-9.799,0.725-14.49,2.172
	c-6.094,1.934-11.973,5.338-15.742,10.611v0.004c-1.91,2.633-3.029,5.902-3.029,9.157c0,1.198,0.15,2.396,0.467,3.563l0.004,0.002
	c0.686,2.616,2.027,4.952,3.764,6.987c1.736,2.039,3.865,3.778,6.105,5.197c0.496,0.307,0.994,0.6,1.504,0.887
	c6.506,3.631,13.998,5.223,21.436,5.223c1.258,0,2.523-0.044,3.773-0.135c7.49-0.618,15.012-2.829,21.092-7.347l0.002-0.005
	c1.936-1.43,3.729-3.162,5.146-5.132c1.424-1.97,2.467-4.174,2.93-6.566v-0.007l0.002-0.002
	C83.18,61.771,83.271,60.864,83.271,59.954z M89.184,47.047c-0.002-0.787-0.182-1.571-0.576-2.302l-0.01-0.009l-0.004-0.012
	c-0.527-1.086-1.355-1.906-2.354-2.465c-0.998-0.563-2.166-0.849-3.338-0.849c-1.059,0-2.113,0.237-3.049,0.707
	c2.975,2.583,5.584,5.687,7.271,9.34c0.543-0.472,1.006-1.05,1.352-1.692C88.928,48.924,89.184,47.979,89.184,47.047z"/>
</svg>

<?xml version="1.0" encoding="UTF-8" standalone="no"?>
<!DOCTYPE svg PUBLIC "-//W3C//DTD SVG 1.1//EN" "http://www.w3.org/Graphics/SVG/1.1/DTD/svg11.dtd">
<svg width="100%" height="100%" viewBox="0 0 100 100" version="1.1" xmlns="http://www.w3.org/2000/svg" xmlns:xlink="http://www.w3.org/1999/xlink" xml:space="preserve" xmlns:serif="http://www.serif.com/" style="fill-rule:evenodd;clip-rule:evenodd;stroke-linejoin:round;stroke-miterlimit:2;">
    <path id="reddit" d="M69.348,53.348C69.58,53.942 69.686,54.555 69.686,55.164C69.686,56.391 69.262,57.582 68.551,58.555C67.848,59.515 66.852,60.262 65.68,60.59L65.682,60.59C65.672,60.594 65.662,60.594 65.657,60.597C65.653,60.597 65.645,60.601 65.641,60.601C65.092,60.789 64.53,60.877 63.971,60.877C62.662,60.877 61.377,60.405 60.35,59.602C59.33,58.801 58.559,57.651 58.317,56.286L58.315,56.286C58.315,56.282 58.315,56.278 58.313,56.272C58.313,56.268 58.313,56.264 58.309,56.258L58.313,56.258C58.237,55.906 58.198,55.555 58.198,55.207C58.198,54.025 69.342,53.323 69.346,53.33C69.346,53.338 69.35,53.342 69.354,53.348L69.348,53.348ZM65.75,67.846C65.289,67.547 64.756,67.366 64.191,67.366C63.736,67.366 63.263,67.496 62.843,67.775C58.866,70.149 42.599,70.714 39.462,69.173L39.446,69.165L39.43,69.159C38.957,68.966 38.418,68.554 37.83,68.163C37.531,67.97 37.219,67.777 36.873,67.636C36.531,67.49 36.152,67.388 35.746,67.388C35.41,67.388 35.057,67.464 34.709,67.622C34.691,67.629 34.674,67.636 34.656,67.643L34.658,67.643C34.111,67.852 33.683,68.234 33.408,68.687C33.121,69.154 32.98,69.697 32.98,70.238C32.98,70.726 33.095,71.215 33.334,71.658C33.561,72.078 33.91,72.445 34.367,72.691C38.851,75.716 59.017,75.975 63.298,73.961L63.321,73.947L63.342,73.935C63.906,73.602 64.656,73.302 65.363,72.865C65.713,72.642 66.054,72.385 66.347,72.05C66.64,71.717 66.876,71.306 67.009,70.82L67.009,70.818C67.064,70.604 67.091,70.394 67.091,70.186C67.091,69.788 66.993,69.411 66.831,69.072C66.594,68.563 66.205,68.144 65.75,67.846ZM34.268,60.572C34.276,60.572 34.286,60.575 34.295,60.58C34.867,60.789 35.457,60.892 36.041,60.892C37.498,60.892 38.914,60.296 39.986,59.323C41.056,58.348 41.789,56.968 41.789,55.395C41.789,55.354 41.789,55.312 41.787,55.264C41.791,55.193 41.793,55.116 41.793,55.037C41.793,53.476 31.236,51.512 30.609,53.488L30.609,53.49C30.609,53.494 30.607,53.498 30.607,53.498C30.427,54.039 30.343,54.598 30.343,55.15C30.343,56.362 30.743,57.541 31.433,58.512C32.117,59.466 33.085,60.216 34.247,60.566C34.256,60.566 34.26,60.568 34.268,60.572ZM94.982,46.449L94.982,46.457C94.996,46.654 95,46.85 95,47.045C95,49.231 94.299,51.333 93.129,53.116C92.037,54.785 90.531,56.182 88.797,57.129C88.908,57.999 88.973,58.876 88.973,59.75C88.971,64.457 87.348,69.084 84.522,72.792L84.522,72.794L84.516,72.794C79.291,79.744 71.268,83.843 63.166,85.91L63.164,85.91L63.158,85.915C58.838,86.964 54.383,87.5 49.929,87.5C43.29,87.5 36.656,86.303 30.466,83.82L30.464,83.814L30.458,83.814C24.04,81.169 17.925,76.964 14.175,70.803C12.157,67.515 11.05,63.659 11.05,59.784C11.05,58.907 11.109,58.03 11.226,57.161C9.537,56.21 8.074,54.861 6.988,53.251C5.828,51.521 5.093,49.495 5,47.353L5,47.32C5.002,44.32 6.305,41.478 8.33,39.383C10.355,37.288 13.121,35.919 16.088,35.919L16.211,35.919C16.522,35.898 16.836,35.886 17.15,35.886C18.64,35.886 20.134,36.127 21.552,36.671L21.56,36.677L21.568,36.679C22.779,37.189 23.982,37.804 25.054,38.656C25.402,38.474 25.781,38.269 26.206,38.107C32.706,34.258 40.261,32.773 47.624,32.345C47.688,28.697 48.136,24.879 49.915,21.537C51.397,18.761 53.968,16.599 57.03,15.85L57.042,15.844L57.058,15.842C58.224,15.616 59.4,15.512 60.568,15.512C63.679,15.512 63.111,20.873 60.586,20.875C60.221,20.875 59.856,20.895 59.49,20.932L59.486,20.932C57.595,21.114 55.838,22.306 54.986,24.02L54.986,24.028C53.693,26.546 53.435,29.489 53.396,32.411C60.644,32.884 67.935,34.623 74.33,38.299L74.34,38.299L74.432,38.353C74.553,38.425 74.778,38.548 74.981,38.656C75.42,38.3 75.885,37.933 76.415,37.617C78.354,36.326 80.651,35.684 82.948,35.684C83.968,35.684 84.989,35.814 85.979,36.068L85.983,36.068L86.024,36.08C86.038,36.082 86.049,36.087 86.061,36.087L86.061,36.089C88.401,36.684 90.518,38.028 92.112,39.84C93.704,41.655 94.776,43.951 94.985,46.444L94.985,46.449L94.982,46.449ZM20.131,42.156C19.162,41.705 18.16,41.383 17.17,41.387C17.004,41.387 16.836,41.397 16.67,41.415L16.647,41.415L16.624,41.418C15.202,41.457 11.107,49.038 11.58,49.838C11.93,50.433 12.389,50.977 12.908,51.449C14.57,47.811 17.166,44.723 20.131,42.156ZM83.271,59.954C83.271,56.711 82.101,53.453 80.207,50.83C76.43,45.574 70.57,42.146 64.475,40.235L64.432,40.22C63.262,39.861 62.08,39.543 60.889,39.271C57.326,38.46 53.674,38.056 50.026,38.056C45.126,38.056 40.227,38.781 35.536,40.228C29.442,42.162 23.563,45.566 19.794,50.839L19.794,50.843C17.884,53.476 16.765,56.745 16.765,60C16.765,61.198 16.915,62.396 17.232,63.563L17.236,63.565C17.922,66.181 19.263,68.517 21,70.552C22.736,72.591 24.865,74.33 27.105,75.749C27.601,76.056 28.099,76.349 28.609,76.636C35.115,80.267 42.607,81.859 50.045,81.859C51.303,81.859 52.568,81.815 53.818,81.724C61.308,81.106 68.83,78.895 74.91,74.377L74.912,74.372C76.848,72.942 78.641,71.21 80.058,69.24C81.482,67.27 82.525,65.066 82.988,62.674L82.988,62.667L82.99,62.665C83.18,61.771 83.271,60.864 83.271,59.954ZM87.124,51.457C87.667,50.985 84.074,41.41 82.902,41.41C81.843,41.41 80.789,41.647 79.853,42.117C82.828,44.7 85.437,47.804 87.124,51.457Z" style="fill-rule:nonzero;"/>
</svg>
